svgs/solid/square-q.svg

<svg xmlns="http://www.w3.org/2000/svg" viewBox="0 0 448 512"><!-- Font Awesome Pro 6.0.0-alpha2 by @fontawesome - https://fontawesome.com License - https://fontawesome.com/license (Commercial License) --><path d="M224 176C179.875 176 144 211.891 144 256S179.875 336 224 336C237.307 336 249.67 332.424 260.719 326.656L231.031 296.969C221.656 287.594 221.656 272.406 231.031 263.031S255.594 253.656 264.969 263.031L294.656 292.719C300.426 281.67 304 269.305 304 256C304 211.891 268.125 176 224 176ZM384 32H64C28.654 32 0 60.654 0 96V416C0 451.346 28.654 480 64 480H384C419.346 480 448 451.346 448 416V96C448 60.654 419.346 32 384 32ZM344.969 343.031C354.344 352.406 354.344 367.594 344.969 376.969C340.281 381.656 334.156 384 328 384S315.719 381.656 311.031 376.969L295.879 361.816C275.371 375.791 250.639 384 224 384C153.406 384 96 326.578 96 256S153.406 128 224 128S352 185.422 352 256C352 282.635 343.789 307.369 329.814 327.877L344.969 343.031Z"/></svg>

<svg xmlns="http://www.w3.org/2000/svg" viewBox="0 0 448 512"><!--! Font Awesome Pro 6.3.0 by @fontawesome - https://fontawesome.com License - https://fontawesome.com/license (Commercial License) Copyright 2023 Fonticons, Inc. --><path d="M64 32C28.7 32 0 60.7 0 96V416c0 35.3 28.7 64 64 64H384c35.3 0 64-28.7 64-64V96c0-35.3-28.7-64-64-64H64zm80 224c0 44.2 35.8 80 80 80c13.4 0 25.9-3.3 37-9.1l-30-30c-9.4-9.4-9.4-24.6 0-33.9s24.6-9.4 33.9 0l30 30c5.8-11.1 9.1-23.7 9.1-37c0-44.2-35.8-80-80-80s-80 35.8-80 80zm208 0c0 26.7-8.2 51.4-22.1 71.9L345 343c9.4 9.4 9.4 24.6 0 33.9s-24.6 9.4-33.9 0l-15.1-15.1c-20.5 14-45.3 22.1-71.9 22.1c-70.7 0-128-57.3-128-128s57.3-128 128-128s128 57.3 128 128z"/></svg>
